X: 1
T: Robbie Hannan's
M: 4/4
L: 1/8
R: reel
K: Dmaj
|: d2 AG FDFA | GBed cABc | dAAG FDDg | fdec dABc |
dAAG FDFA | GBed cABc | dedA (3Bcd AG | FAEA DEFA :|
|: defg afdA | GBed cAAg | fgaf dAGF | GBec dfag |
fgaf dAGF | GBed cAAg | fdge afbg | fgec dABc :|
